X:1
T:Title
%%score { ( 1 3 ) | ( 2 4 ) }
L:1/8
M:3/4
K:Ab
V:1 treble nm="Grand Piano"
V:3 treble 
V:2 bass 
V:4 bass 
V:1
 z2 z2[Q:1/4=94] [CE]>[CF] | [CE]2 [CA]2 [CE]>[CF] | [DE]2 [DB]2 E>F | E2 d2 d>d | c4 c>B | %5
 A2 [=EG]2 [DF]>[_EF] | [=DF]2 [DB]2 [Dc]>[DB] | [DB]4 [CE]>[CF] | [CE]2 [CA]2 [CE]>[CF] | %9
 [DE]2 [DB]2 E>F | E2 d2 d>d | c4 c>[Bd] | [ce]2 [Ac]2 [GB]>[_Gc] | d2 z2 z2 | c3 A B>B | %15
[M:2/4] [CA]4 |[M:1/4] G>A |[M:3/4] B3 =A B>c | [CA]2 [CE]2 G>A | B3 =A B>_c |[M:2/4] [Ec]4 | %21
[M:1/4] c>B |[M:3/4] A3 [=EG] (3[F-B]F[A,DF] |[M:13/16] [CE]-<[CE]C z/ z [A,FA]>[=EB] | %24
[M:27/32] c/4-c/4-c/4-c/4-c/4-c/4-c/4-c/4-c/-<c/A/-<A/B/4-B/4-B/4-B/4-B/-<B/B3/4 |[M:2/4] [CA]4 |] %26
V:2
 z2 z2 [A,,A,]>[A,,A,] | [A,,A,]2 [A,,E,]2 [A,,A,]>[A,,A,] | [B,,G,]2 [B,,E,]2 [E,G,D]>[E,A,D] | %3
 [E,G,D]2 [E,G,E]2 [F,A,E]>[G,B,E] | [A,CE]4 [A,CE]>[G,C=E] | [F,CF]2 [C,B,]2 [D,A,]>[C,=A,] | %6
 [B,,B,]2 [B,,F,]2 [B,,A,]>[B,,A,] | [E,G,]4 [A,,A,]>[A,,A,] | [A,,A,]2 [A,,E,]2 [A,,A,]>[A,,A,] | %9
 [B,,G,]2 [B,,E,]2 [E,G,D]>[E,A,D] | [E,G,D]2 [E,G,E]2 [F,A,E]>[K:treble][G,B,E] | %11
 [A,CA]4 [A,EA]>[A,E] | [A,E]4[K:bass] [A,,A,]2 | [D,A,]4 [D,A,]2 | %14
 [E,A,E]3 [E,A,C] [E,G,D]>[E,G,D] |[M:2/4] [A,,A,]4 |[M:1/4] [E,B,]>[E,A,C] | %17
[M:3/4] [E,G,D]3 [E,_G,C] [E,=G,D]>[E,G,E] | [A,,E,]2 [A,,A,]2 [E,B,]>[E,A,C] | %19
 [E,G,D]3 [E,_G,C] [E,=G,D]>[E,G,=D] |[M:2/4] [A,,A,]4 |[M:1/4] [A,CE]>[G,C=E] | %22
[M:3/4] [F,CF]3 [C,B,] (3[D,A,]-[D,A,A]F, |[M:13/16] A,-<A, z _G3/2D,>[D,A,] | %24
[M:27/32] [E,A,E]/4-[E,A,E]/4-[E,A,E]/4-[E,A,E]/4-[E,A,E]/4-[E,A,E]/4-[E,A,E]/4-[E,A,E]/4-[E,A,E]/-<[E,A,E]/[E,A,C]/-<[E,A,C]/[E,D]/4-[E,D]/4-[E,D]/4-[E,D]/4-[E,D]/-<[E,D]/[E,B,D]3/4 | %25
[M:2/4] [A,,A,]4 |] %26
V:3
 x6 | x6 | x6 | x6 | x6 | x6 | x6 | x6 | x6 | x6 | x6 | x6 | x6 | F2- [FA]2 [=EB]2 | x6 | %15
[M:2/4] x4 |[M:1/4] x2 |[M:3/4] x6 | x6 | x6 |[M:2/4] x4 |[M:1/4] x2 |[M:3/4] x6 | %23
[M:13/16] z/ z/ z [A,A]/-[A,A]-<[A,A] z/ z/ z |[M:27/32] x27/4 |[M:2/4] x4 |] %26
V:4
 x6 | x6 | x6 | x6 | x6 | x6 | x6 | x6 | x6 | x6 | x11/2[K:treble] x/ | x6 | x4[K:bass] x2 | x6 | %14
 x6 |[M:2/4] x4 |[M:1/4] x2 |[M:3/4] x6 | x6 | x6 |[M:2/4] x4 |[M:1/4] x2 |[M:3/4] x6 | %23
[M:13/16] z/ z/ z A,,/-A,,-<A,, z/ z/ z | %24
[M:27/32] z/4 z/4 z/4 z/4 z/4 z/4 z/4 z/4 z/4 z/4 z/4 z/4 z/4 z/4 z/ G,/4-G,/4-G,/4-G,/4-G,/4-G,/4-G,/-<G,/ z/4 | %25
[M:2/4] x4 |] %26

